dist/img/settings.svg

<svg width="99" height="101" viewBox="0 0 99 101" fill="none" xmlns="http://www.w3.org/2000/svg">
<path fill-rule="evenodd" clip-rule="evenodd" d="M88.5229 47.4889C89.0599 46.9224 89.8228 46.5884 90.6349 46.5884H96.3292C97.2657 46.5884 98.0221 45.8288 98.0221 44.8923V36.1985C98.0221 35.262 97.2657 34.5056 96.3292 34.5056H90.6349C89.4233 34.5056 88.3166 33.7591 87.9171 32.613C87.6093 31.7256 87.2491 30.8644 86.8431 30.0262C86.3126 28.9325 86.5615 27.6162 87.4226 26.755L91.4502 22.7274C92.1117 22.0659 92.1117 20.9919 91.4502 20.3305L85.3041 14.1843C84.6426 13.5228 83.5686 13.5228 82.9071 14.1843L78.8763 18.2119C78.0184 19.0731 76.702 19.3219 75.6083 18.7915C74.7701 18.3854 73.9089 18.0252 73.0215 17.7142C71.8754 17.3179 71.1289 16.2112 71.1289 14.9963V9.30531C71.1289 8.36881 70.3692 7.60913 69.436 7.60913H60.739C59.8057 7.60913 59.0461 8.36881 59.0461 9.30531V14.9963C59.0461 16.2112 58.2995 17.3179 57.1534 17.7142C56.266 18.0252 55.4049 18.3854 54.5699 18.7915C53.4729 19.3219 52.1566 19.0731 51.2987 18.2119L47.2678 14.1843C46.6063 13.5228 45.5356 13.5228 44.8742 14.1843L38.7247 20.3305C38.0633 20.9919 38.0633 22.0659 38.7247 22.7274L42.7556 26.755C43.6168 27.6162 43.8623 28.9325 43.3319 30.0262C42.9258 30.8644 42.5657 31.7256 42.2579 32.613C41.8584 33.7591 40.7516 34.5056 39.54 34.5056H33.8457C32.9092 34.5056 32.1528 35.262 32.1528 36.1985V44.8923C32.1528 45.8288 32.9092 46.5884 33.8457 46.5884H39.54C40.7516 46.5884 41.8584 47.335 42.2579 48.4778C42.5657 49.3652 42.9258 50.2297 43.3319 51.0646C43.8623 52.1616 43.6168 53.4747 42.7556 54.3358L38.7247 58.3667C38.0633 59.0282 38.0633 60.0989 38.7247 60.7604L44.8742 66.9098C45.5356 67.5713 46.6063 67.5713 47.2678 66.9098L51.2987 62.8789C52.1566 62.0177 53.4729 61.7689 54.5699 62.3026C55.4049 62.7087 56.266 63.0689 57.1534 63.3767C58.2995 63.7761 59.0461 64.8829 59.0461 66.0945V71.7888C59.0461 72.722 59.8057 73.4817 60.739 73.4817H69.436C70.3692 73.4817 71.1289 72.722 71.1289 71.7888V66.0945C71.1289 64.8829 71.8754 63.7761 73.0215 63.3767C73.9089 63.0689 74.7701 62.7087 75.6083 62.3026C76.702 61.7689 78.0184 62.0177 78.8763 62.8789L82.9071 66.9098C83.5686 67.5713 84.6426 67.5713 85.3041 66.9098L91.4502 60.7604C92.1117 60.0989 92.1117 59.0282 91.4502 58.3667L87.4226 54.3358C86.5615 53.4747 86.3126 52.1616 86.8431 51.0646L88.5229 47.4889Z" fill="white"/>
<path fill-rule="evenodd" clip-rule="evenodd" d="M69.436 74.3003H60.739C59.3539 74.3003 58.2275 73.1739 58.2275 71.7888V66.0945C58.2275 65.2104 57.6872 64.431 56.8849 64.1494C55.9779 63.8318 55.0774 63.4585 54.2097 63.0394C53.4402 62.6628 52.5004 62.8331 51.8783 63.4585L47.8474 67.4861C46.8683 68.4685 45.2737 68.4685 44.2946 67.4861L38.1451 61.34C37.1661 60.3609 37.1661 58.7662 38.1451 57.7871L42.176 53.7563C42.8014 53.1308 42.9717 52.1943 42.5951 51.4216C42.176 50.5571 41.7994 49.6566 41.4851 48.7496C41.2035 47.9441 40.4242 47.4071 39.5401 47.4071H33.8457C32.4606 47.4071 31.3342 46.2774 31.3342 44.8923V36.1986C31.3342 34.8135 32.4606 33.687 33.8457 33.687H39.5401C40.4242 33.687 41.2035 33.1467 41.4851 32.3445C41.7994 31.4342 42.176 30.5337 42.5951 29.6693C42.9717 28.8998 42.8014 27.96 42.176 27.3346L38.1451 23.307C37.6703 22.8322 37.4116 22.2002 37.4116 21.5289C37.4116 20.8577 37.6703 20.2257 38.1451 19.7509L44.2946 13.6047C45.2737 12.6256 46.8683 12.6256 47.8474 13.6047L51.875 17.6323C52.5037 18.261 53.4402 18.428 54.2097 18.0547C55.0807 17.6323 55.9812 17.259 56.8849 16.9414C57.6872 16.6631 58.2275 15.8805 58.2275 14.9964V9.30532C58.2275 7.92022 59.3539 6.79053 60.739 6.79053H69.436C70.8211 6.79053 71.9475 7.92022 71.9475 9.30532V14.9964C71.9475 15.8805 72.4878 16.6631 73.29 16.9414C74.1971 17.259 75.0943 17.6323 75.9653 18.0547C76.7348 18.428 77.6745 18.2577 78.3 17.6323L82.3276 13.6047C83.3066 12.6256 84.9013 12.6256 85.8804 13.6047L92.0298 19.7509C92.5046 20.2257 92.7666 20.8577 92.7666 21.5289C92.7666 22.2002 92.5046 22.8322 92.0298 23.307L87.999 27.3346C87.3735 27.96 87.2065 28.8998 87.5798 29.6693C88.0022 30.537 88.3755 31.4375 88.6931 32.3445C88.9715 33.1467 89.7541 33.687 90.6349 33.687H96.3292C97.7143 33.687 98.8407 34.8135 98.8407 36.1986V44.8923C98.8407 46.2774 97.7143 47.4071 96.3292 47.4071H90.6349C90.0586 47.4071 89.5052 47.6428 89.1156 48.0521C88.8045 48.3796 88.2871 48.3927 87.9597 48.0816C87.6322 47.7705 87.6158 47.2532 87.9269 46.9257C88.6244 46.189 89.6133 45.7698 90.6349 45.7698H96.3292C96.8106 45.7698 97.2035 45.3769 97.2035 44.8923V36.1986C97.2035 35.7172 96.8106 35.3243 96.3292 35.3243H90.6349C89.0566 35.3243 87.6551 34.3419 87.1443 32.8815C86.8496 32.0367 86.5025 31.1952 86.1063 30.3831C85.4285 28.9849 85.7232 27.2953 86.8431 26.1787L90.8707 22.1478C91.0377 21.9841 91.1294 21.7614 91.1294 21.5289C91.1294 21.2964 91.0377 21.0738 90.8707 20.91L84.7245 14.7606C84.3839 14.42 83.8273 14.42 83.4867 14.7606L79.4559 18.7915C78.3393 19.9113 76.6464 20.206 75.2514 19.5282C74.4361 19.132 73.5978 18.7816 72.753 18.4902C71.2926 17.9794 70.3103 16.5779 70.3103 14.9964V9.30532C70.3103 8.8207 69.9173 8.42776 69.436 8.42776H60.739C60.2576 8.42776 59.8647 8.8207 59.8647 9.30532V14.9964C59.8647 16.5779 58.8856 17.9794 57.4252 18.4869C56.5771 18.7816 55.7389 19.132 54.9268 19.5282C53.5286 20.206 51.8357 19.9113 50.7191 18.7915L46.6882 14.7606C46.3477 14.42 45.7943 14.42 45.4505 14.7639L39.3043 20.91C39.1373 21.0738 39.0489 21.2964 39.0489 21.5289C39.0489 21.7614 39.1373 21.9841 39.3043 22.1478L43.3319 26.1787C44.4518 27.2953 44.7465 28.9849 44.0686 30.3831C43.6757 31.1952 43.3253 32.0334 43.0306 32.8815C42.5198 34.3419 41.1184 35.3243 39.5401 35.3243H33.8457C33.3644 35.3243 32.9715 35.7172 32.9715 36.1986V44.8923C32.9715 45.3769 33.3644 45.7698 33.8457 45.7698H39.5401C41.1184 45.7698 42.5198 46.7489 43.0306 48.2093C43.3253 49.0574 43.6757 49.8989 44.0686 50.7077C44.7465 52.1059 44.4518 53.7956 43.3319 54.9154L39.3043 58.943C38.9637 59.2869 38.9637 59.8402 39.3043 60.1808L45.4505 66.3302C45.7943 66.6708 46.3477 66.6708 46.6882 66.3302L50.7191 62.2994C51.8357 61.1828 53.5286 60.8848 54.9268 61.5659C55.7356 61.9588 56.5739 62.3092 57.4252 62.6039C58.8856 63.1114 59.8647 64.5162 59.8647 66.0945V71.7888C59.8647 72.2701 60.2576 72.6631 60.739 72.6631H69.436C69.9173 72.6631 70.3103 72.2701 70.3103 71.7888V66.0945C70.3103 64.5162 71.2926 63.1114 72.753 62.6039C73.6011 62.3092 74.4394 61.9588 75.2482 61.5659C76.6496 60.8881 78.3393 61.1828 79.4559 62.2994L83.4867 66.3302C83.8175 66.661 84.3938 66.661 84.7245 66.3302L90.8707 60.1808C91.2112 59.8402 91.2112 59.2869 90.8707 58.943L86.8431 54.9154C85.7232 53.7956 85.4285 52.1059 86.1063 50.7077C86.3061 50.3017 86.794 50.1314 87.2 50.3279C87.6093 50.5276 87.7763 51.0155 87.5798 51.4216C87.2065 52.1943 87.3735 53.1308 87.999 53.7563L92.0298 57.7871C93.0089 58.7662 93.0089 60.3609 92.0298 61.34L85.8804 67.4861C85.4056 67.9609 84.7769 68.2229 84.1056 68.2229C83.4343 68.2229 82.8024 67.9609 82.3276 67.4861L78.3 63.4585C77.6745 62.8331 76.7348 62.6628 75.9653 63.0394C75.0975 63.4585 74.2003 63.8318 73.29 64.1494C72.4878 64.431 71.9475 65.2104 71.9475 66.0945V71.7888C71.9475 73.1739 70.8211 74.3003 69.436 74.3003Z" fill="black"/>
<path fill-rule="evenodd" clip-rule="evenodd" d="M27.9289 8.00205C27.6997 8.00205 27.4705 7.90382 27.3068 7.7139L24.0094 3.86312C23.7147 3.5193 23.754 3.00193 24.0978 2.70723C24.4416 2.41253 24.959 2.4551 25.2504 2.79892L28.5511 6.64969C28.8458 6.99351 28.8065 7.51088 28.4627 7.80558C28.3088 7.93656 28.1189 8.00205 27.9289 8.00205Z" fill="black"/>
<path fill-rule="evenodd" clip-rule="evenodd" d="M48.0144 7.42897C47.9457 7.42897 47.8769 7.42242 47.8048 7.40278C47.3693 7.28817 47.1074 6.83957 47.222 6.40406L48.5121 1.4989C48.6267 1.06013 49.0753 0.801442 49.5108 0.912774C49.9496 1.02738 50.2083 1.47598 50.0937 1.91476L48.8068 6.81992C48.7086 7.18666 48.3779 7.42897 48.0144 7.42897Z" fill="black"/>
<path fill-rule="evenodd" clip-rule="evenodd" d="M20.6104 27.4523C20.1979 27.4523 19.8442 27.1477 19.7951 26.7286C19.7427 26.28 20.0669 25.874 20.5155 25.8216L25.5516 25.2322C26.0035 25.1798 26.4095 25.5007 26.4619 25.9493C26.5143 26.3979 26.1934 26.8039 25.7448 26.8563L20.7054 27.449C20.6727 27.4523 20.6399 27.4523 20.6104 27.4523Z" fill="black"/>
<path fill-rule="evenodd" clip-rule="evenodd" d="M60.1659 100.676H5.69838C4.13319 100.676 2.86597 99.4088 2.86597 97.8436V43.376C2.86597 41.8141 4.13319 40.5469 5.69838 40.5469H60.1659C61.7279 40.5469 62.9951 41.8141 62.9951 43.376V97.8436C62.9951 99.4088 61.7279 100.676 60.1659 100.676Z" fill="#FBBC02"/>
<path fill-rule="evenodd" clip-rule="evenodd" d="M52.8248 55.2527H13.9732C13.5213 55.2527 13.1545 54.886 13.1545 54.4341C13.1545 53.9822 13.5213 53.6155 13.9732 53.6155H52.8248C53.2766 53.6155 53.6434 53.9822 53.6434 54.4341C53.6434 54.886 53.2766 55.2527 52.8248 55.2527Z" fill="black"/>
<path fill-rule="evenodd" clip-rule="evenodd" d="M20.45 58.2618H26.0558V50.6028H20.45V58.2618Z" fill="white"/>
<path fill-rule="evenodd" clip-rule="evenodd" d="M21.2686 57.4432H25.2372V51.4214H21.2686V57.4432ZM26.0559 59.0804H20.45C19.9981 59.0804 19.6313 58.7137 19.6313 58.2618V50.6028C19.6313 50.1509 19.9981 49.7842 20.45 49.7842H26.0559C26.5077 49.7842 26.8745 50.1509 26.8745 50.6028V58.2618C26.8745 58.7137 26.5077 59.0804 26.0559 59.0804Z" fill="black"/>
<path fill-rule="evenodd" clip-rule="evenodd" d="M52.8248 72.46H13.9732C13.5213 72.46 13.1545 72.0932 13.1545 71.6414C13.1545 71.1895 13.5213 70.8228 13.9732 70.8228H52.8248C53.2766 70.8228 53.6434 71.1895 53.6434 71.6414C53.6434 72.0932 53.2766 72.46 52.8248 72.46Z" fill="black"/>
<path fill-rule="evenodd" clip-rule="evenodd" d="M38.4758 75.4725H44.085V67.8135H38.4758V75.4725Z" fill="white"/>
<path fill-rule="evenodd" clip-rule="evenodd" d="M39.2945 74.6539H43.2664V68.6321H39.2945V74.6539ZM44.085 76.2911H38.4758C38.024 76.2911 37.6572 75.9244 37.6572 75.4725V67.8135C37.6572 67.3616 38.024 66.9949 38.4758 66.9949H44.085C44.5369 66.9949 44.9036 67.3616 44.9036 67.8135V75.4725C44.9036 75.9244 44.5369 76.2911 44.085 76.2911Z" fill="black"/>
<path fill-rule="evenodd" clip-rule="evenodd" d="M52.8248 89.6707H13.9732C13.5213 89.6707 13.1545 89.3039 13.1545 88.8521C13.1545 88.4002 13.5213 88.0334 13.9732 88.0334H52.8248C53.2766 88.0334 53.6434 88.4002 53.6434 88.8521C53.6434 89.3039 53.2766 89.6707 52.8248 89.6707Z" fill="black"/>
<path fill-rule="evenodd" clip-rule="evenodd" d="M29.3501 92.683H34.956V85.0208H29.3501V92.683Z" fill="white"/>
<path fill-rule="evenodd" clip-rule="evenodd" d="M30.1687 91.8644H34.1374V85.8394H30.1687V91.8644ZM34.956 93.5016H29.3501C28.895 93.5016 28.5315 93.1349 28.5315 92.683V85.0208C28.5315 84.5689 28.895 84.2021 29.3501 84.2021H34.956C35.4079 84.2021 35.7746 84.5689 35.7746 85.0208V92.683C35.7746 93.1349 35.4079 93.5016 34.956 93.5016Z" fill="black"/>
<path fill-rule="evenodd" clip-rule="evenodd" d="M79.97 40.547C79.97 48.7659 73.3065 55.4295 65.0876 55.4295C56.8686 55.4295 50.2051 48.7659 50.2051 40.547C50.2051 32.3248 56.8686 25.6646 65.0876 25.6646C73.3065 25.6646 79.97 32.3248 79.97 40.547Z" fill="black"/>
<path fill-rule="evenodd" clip-rule="evenodd" d="M63.3063 56.1399C63.2735 56.1399 63.2408 56.1399 63.208 56.1366C55.3264 55.1936 49.3865 48.494 49.3865 40.5469C49.3865 40.095 49.7532 39.7283 50.2051 39.7283C50.657 39.7283 51.0237 40.095 51.0237 40.5469C51.0237 47.6623 56.3447 53.6677 63.4012 54.5092C63.8498 54.5649 64.1707 54.9709 64.1183 55.4195C64.0659 55.8354 63.7123 56.1399 63.3063 56.1399Z" fill="white"/>
<path fill-rule="evenodd" clip-rule="evenodd" d="M61.4954 45.8059C61.312 45.8059 61.1319 45.7469 60.9813 45.6225C60.6277 45.3409 60.5753 44.8235 60.8569 44.4732L64.2689 40.2557V30.6516C64.2689 30.1965 64.6356 29.833 65.0875 29.833C65.5394 29.833 65.9061 30.1965 65.9061 30.6516V40.5471C65.9061 40.7337 65.8439 40.9138 65.7227 41.0612L62.1306 45.5014C61.9702 45.7011 61.7344 45.8059 61.4954 45.8059Z" fill="white"/>
</svg>

<svg width="99" height="101" fill="none" xmlns="http://www.w3.org/2000/svg"><path fill-rule="evenodd" clip-rule="evenodd" d="M88.523 47.489c.537-.567 1.3-.9 2.112-.9h5.694c.937 0 1.693-.76 1.693-1.697v-8.694a1.69 1.69 0 00-1.693-1.692h-5.694c-1.212 0-2.318-.747-2.718-1.893a23.889 23.889 0 00-1.074-2.587c-.53-1.093-.282-2.41.58-3.271l4.027-4.028a1.696 1.696 0 000-2.396l-6.146-6.147a1.696 1.696 0 00-2.397 0l-4.03 4.028c-.859.861-2.175 1.11-3.269.58-.838-.407-1.7-.767-2.587-1.078-1.146-.396-1.892-1.503-1.892-2.718v-5.69c0-.937-.76-1.697-1.693-1.697h-8.697c-.933 0-1.693.76-1.693 1.696v5.691c0 1.215-.746 2.322-1.893 2.718a24.06 24.06 0 00-2.583 1.078c-1.097.53-2.413.281-3.271-.58l-4.031-4.028a1.692 1.692 0 00-2.394 0l-6.15 6.147a1.696 1.696 0 000 2.396l4.032 4.028c.86.861 1.106 2.178.576 3.271-.406.838-.766 1.7-1.074 2.587-.4 1.146-1.506 1.893-2.718 1.893h-5.694a1.69 1.69 0 00-1.693 1.693v8.693c0 .937.756 1.696 1.693 1.696h5.694c1.212 0 2.318.747 2.718 1.89a23.7 23.7 0 001.074 2.587c.53 1.097.285 2.41-.576 3.27l-4.031 4.032a1.692 1.692 0 000 2.393l6.15 6.15a1.692 1.692 0 002.393 0l4.03-4.031c.859-.861 2.175-1.11 3.272-.576.835.406 1.696.766 2.583 1.074 1.147.4 1.893 1.506 1.893 2.717v5.695c0 .933.76 1.693 1.693 1.693h8.697c.933 0 1.693-.76 1.693-1.693v-5.695c0-1.211.746-2.318 1.892-2.717a23.87 23.87 0 002.587-1.074c1.094-.534 2.41-.285 3.268.576l4.031 4.03a1.696 1.696 0 002.397 0l6.146-6.149a1.692 1.692 0 000-2.393l-4.027-4.031c-.862-.861-1.11-2.174-.58-3.271l1.68-3.576z" fill="#fff"/><path fill-rule="evenodd" clip-rule="evenodd" d="M69.436 74.3h-8.697a2.514 2.514 0 01-2.511-2.511v-5.695c0-.884-.54-1.663-1.343-1.945a25.719 25.719 0 01-2.675-1.11c-.77-.376-1.71-.206-2.332.42l-4.03 4.027a2.51 2.51 0 01-3.553 0l-6.15-6.146a2.516 2.516 0 010-3.553l4.031-4.03c.625-.626.796-1.563.42-2.335a24.698 24.698 0 01-1.11-2.672c-.282-.806-1.062-1.343-1.946-1.343h-5.694a2.517 2.517 0 01-2.512-2.515V36.2a2.514 2.514 0 012.512-2.512h5.694c.884 0 1.663-.54 1.945-1.343.314-.91.691-1.81 1.11-2.675.377-.77.206-1.709-.419-2.334l-4.03-4.028a2.496 2.496 0 01-.734-1.778c0-.671.258-1.303.733-1.778l6.15-6.146a2.513 2.513 0 013.552 0l4.028 4.027c.629.629 1.565.796 2.335.423a25.621 25.621 0 012.675-1.114c.802-.278 1.343-1.06 1.343-1.945v-5.69a2.517 2.517 0 012.511-2.515h8.697a2.517 2.517 0 012.511 2.514v5.691c0 .884.54 1.667 1.343 1.945.907.318 1.804.691 2.675 1.114.77.373 1.71.203 2.335-.423l4.028-4.027a2.516 2.516 0 013.552 0l6.15 6.146a2.5 2.5 0 01.737 1.778 2.5 2.5 0 01-.737 1.778l-4.031 4.028c-.625.625-.792 1.565-.42 2.334.423.868.797 1.768 1.114 2.675.279.803 1.061 1.343 1.942 1.343h5.694a2.514 2.514 0 012.512 2.512v8.693a2.517 2.517 0 01-2.512 2.515h-5.694c-.576 0-1.13.236-1.52.645a.817.817 0 01-1.155.03.818.818 0 01-.033-1.156 3.742 3.742 0 012.708-1.156h5.694a.877.877 0 00.875-.878V36.2a.876.876 0 00-.875-.875h-5.694c-1.578 0-2.98-.982-3.49-2.442a22.977 22.977 0 00-1.039-2.499c-.677-1.398-.383-3.088.737-4.204l4.028-4.031a.864.864 0 00.258-.62.864.864 0 00-.258-.618l-6.146-6.15a.877.877 0 00-1.238 0l-4.031 4.031c-1.117 1.12-2.81 1.415-4.205.737a22.59 22.59 0 00-2.498-1.038c-1.46-.51-2.443-1.912-2.443-3.494v-5.69a.877.877 0 00-.874-.878h-8.697a.877.877 0 00-.874.877v5.691c0 1.582-.98 2.983-2.44 3.49a22.73 22.73 0 00-2.498 1.042c-1.398.678-3.091.383-4.208-.736l-4.03-4.031a.874.874 0 00-1.239.003l-6.146 6.146a.861.861 0 00-.255.619c0 .232.088.455.255.619l4.028 4.03c1.12 1.117 1.414 2.807.737 4.205a23.13 23.13 0 00-1.038 2.499c-.511 1.46-1.913 2.442-3.49 2.442h-5.695a.876.876 0 00-.874.875v8.693c0 .485.392.878.874.878h5.694c1.578 0 2.98.979 3.49 2.44.295.847.646 1.689 1.039 2.498.677 1.398.383 3.088-.737 4.207l-4.028 4.028a.877.877 0 000 1.238l6.146 6.15c.344.34.898.34 1.238 0l4.031-4.032c1.117-1.116 2.81-1.414 4.208-.733.809.393 1.647.743 2.498 1.038 1.46.507 2.44 1.912 2.44 3.49v5.695c0 .481.393.874.874.874h8.697a.876.876 0 00.874-.874v-5.695c0-1.578.983-2.983 2.443-3.49a23.038 23.038 0 002.495-1.038c1.402-.678 3.091-.383 4.208.733l4.03 4.031a.897.897 0 001.239 0l6.146-6.15a.878.878 0 000-1.237l-4.028-4.028c-1.12-1.12-1.415-2.81-.737-4.207a.818.818 0 111.474.714c-.373.772-.206 1.709.419 2.334l4.03 4.031c.98.98.98 2.574 0 3.553l-6.149 6.146a2.492 2.492 0 01-1.774.737 2.5 2.5 0 01-1.778-.737L78.3 63.458c-.626-.625-1.565-.795-2.335-.419-.868.42-1.765.793-2.675 1.11-.802.282-1.343 1.061-1.343 1.945v5.695a2.514 2.514 0 01-2.511 2.511zM27.929 8.002a.821.821 0 01-.622-.288l-3.298-3.85a.82.82 0 01.089-1.157.816.816 0 011.152.092l3.301 3.85a.82.82 0 01-.622 1.353zm20.085-.573a.82.82 0 01-.792-1.025l1.29-4.905a.819.819 0 111.582.416L48.807 6.82a.82.82 0 01-.793.609zM20.61 27.452a.818.818 0 01-.095-1.63l5.037-.59a.819.819 0 11.193 1.624l-5.04.593c-.032.003-.065.003-.095.003z" fill="#000"/><path fill-rule="evenodd" clip-rule="evenodd" d="M60.166 100.676H5.698a2.831 2.831 0 01-2.832-2.832V43.376a2.83 2.83 0 012.832-2.83h54.468a2.83 2.83 0 012.83 2.83v54.468a2.83 2.83 0 01-2.83 2.832z" fill="#FBBC02"/><path fill-rule="evenodd" clip-rule="evenodd" d="M52.825 55.253H13.973a.819.819 0 010-1.638h38.852a.819.819 0 010 1.638z" fill="#000"/><path fill-rule="evenodd" clip-rule="evenodd" d="M20.45 58.262h5.606v-7.66H20.45v7.66z" fill="#fff"/><path fill-rule="evenodd" clip-rule="evenodd" d="M21.269 57.443h3.968v-6.022H21.27v6.022zm4.787 1.637H20.45a.819.819 0 01-.819-.818v-7.66a.82.82 0 01.819-.818h5.606a.82.82 0 01.819.819v7.659a.819.819 0 01-.82.818zm26.769 13.38H13.973a.819.819 0 010-1.637h38.852a.819.819 0 010 1.637z" fill="#000"/><path fill-rule="evenodd" clip-rule="evenodd" d="M38.476 75.472h5.609v-7.658h-5.61v7.659z" fill="#fff"/><path fill-rule="evenodd" clip-rule="evenodd" d="M39.294 74.654h3.972v-6.022h-3.971v6.022zm4.791 1.637h-5.61a.819.819 0 01-.818-.819v-7.658a.82.82 0 01.819-.82h5.609a.82.82 0 01.819.82v7.659a.819.819 0 01-.819.818zm8.74 13.379H13.973a.819.819 0 010-1.637h38.852a.819.819 0 010 1.638z" fill="#000"/><path fill-rule="evenodd" clip-rule="evenodd" d="M29.35 92.683h5.606v-7.662H29.35v7.662z" fill="#fff"/><path fill-rule="evenodd" clip-rule="evenodd" d="M30.169 91.864h3.968V85.84H30.17v6.025zm4.787 1.638H29.35a.817.817 0 01-.819-.819v-7.662c0-.452.364-.819.82-.819h5.605a.82.82 0 01.819.819v7.662a.819.819 0 01-.819.819zM79.97 40.547c0 8.219-6.663 14.883-14.882 14.883-8.22 0-14.883-6.664-14.883-14.883 0-8.222 6.664-14.882 14.883-14.882s14.882 6.66 14.882 14.882z" fill="#000"/><path fill-rule="evenodd" clip-rule="evenodd" d="M63.306 56.14c-.032 0-.065 0-.098-.003-7.882-.943-13.822-7.643-13.822-15.59a.819.819 0 011.638 0c0 7.115 5.32 13.12 12.377 13.962.449.056.77.462.717.91a.822.822 0 01-.812.72zm-1.811-10.334a.799.799 0 01-.514-.183.817.817 0 01-.124-1.15l3.412-4.217v-9.604a.817.817 0 111.637 0v9.895a.804.804 0 01-.183.514l-3.592 4.44a.813.813 0 01-.636.305z" fill="#fff"/></svg>
